X: 1
T: Father Burke's
M: 9/8
L: 1/8
R: slip jig
K: Gmaj
GBB FAF G2 D | GDG B/c/dB cAF | G2 B F/G/AF G2 d | fdg fed cAF |
GBB FAA G3 | GFG GBG AFD | G2 B F2 A GB/c/d | fd/d/d f2 d cAF ||
G2 g =fde f3 | gfg dBG cAF | G2 g =fde f2 c | A=fc adB cAF |
Ggg =fde fef | g2 g dBG AB/c/d | e/f/ge faf g3 | =fef cAd cAF ||
